X: 30
T:Lark in the Morning
M:6/8
L:1/8
Q:138
S:Ho-ro-gheallaidh Session Tunes for Scottish Fiddlers Vol.1
K:D
A | AFA AFA |BGB BdB | AFA Ade | fed BdB |
AFA AFA | BGB BAB | def afe | fdB B2 :|
A | def afa | baf afe | def afe | fdB BAB |
def afa | baf a2 f | gag fef | dBB B2 :|
A | def {g}fef | {g}fef {g}fef | def {g}fef | edB {c}BAB |
def {g}fef | {g}fef {g}fef | bag fef | dBB B2 :|
B | Add fdd | edd fdd | Add fdd | efe dcB |
Add fdd | edd fdd | gag fef | dBB B2 :|
